public/svg/broker-info-nine-active.svg

<svg width="70" height="70" viewBox="0 0 70 70" fill="none" xmlns="http://www.w3.org/2000/svg">
<path fill-rule="evenodd" clip-rule="evenodd" d="M36.5236 54.8167C36.5236 55.3459 36.0946 55.7736 35.5667 55.7736H32.5934C32.0641 55.7736 31.6358 55.3459 31.6358 54.8167C31.6358 54.2875 32.0641 53.8599 32.5934 53.8599H35.5667C36.0946 53.8599 36.5236 54.289 36.5236 54.8167ZM38.2548 12.3205H41.2281C41.7574 12.3205 42.185 11.8915 42.185 11.3637C42.185 10.8358 41.7574 10.4068 41.2281 10.4068H38.2548C37.7257 10.4068 37.2979 10.8344 37.2979 11.3637C37.2979 11.8929 37.7255 12.3205 38.2548 12.3205ZM15.1835 38.3657C15.7126 38.3657 16.1404 37.936 16.1404 37.4082V34.4348C16.1404 33.9057 15.7127 33.4779 15.1835 33.4779C14.6542 33.4779 14.2266 33.9056 14.2266 34.4348V37.4082C14.2266 37.936 14.6542 38.3657 15.1835 38.3657ZM15.1835 15.2939C15.7126 15.2939 16.1404 14.8649 16.1404 14.3377V12.3205H18.1568C18.6859 12.3205 19.1137 11.8915 19.1137 11.3637C19.1137 10.8358 18.6861 10.4068 18.1568 10.4068H15.1835C14.6544 10.4068 14.2266 10.8344 14.2266 11.3637V14.3377C14.2266 14.8649 14.6542 15.2939 15.1835 15.2939ZM43.2572 53.8599H40.2838C39.7546 53.8599 39.3269 54.289 39.3269 54.8167C39.3269 55.3444 39.7546 55.7736 40.2838 55.7736H43.2572C43.785 55.7736 44.2141 55.3459 44.2141 54.8167C44.2141 54.2875 43.785 53.8599 43.2572 53.8599ZM30.5643 12.3205H33.5377C34.0669 12.3205 34.4953 11.8915 34.4953 11.3637C34.4953 10.8358 34.0669 10.4068 33.5377 10.4068H30.5643C30.0352 10.4068 29.6074 10.8344 29.6074 11.3637C29.6074 11.8929 30.0351 12.3205 30.5643 12.3205ZM15.1835 22.985C15.7126 22.985 16.1404 22.5553 16.1404 22.0274V19.0541C16.1404 18.525 15.7127 18.0972 15.1835 18.0972C14.6542 18.0972 14.2266 18.5248 14.2266 19.0541V22.0274C14.2266 22.5553 14.6542 22.985 15.1835 22.985ZM15.1835 30.6754C15.7126 30.6754 16.1404 30.2457 16.1404 29.7179V26.7445C16.1404 26.2154 15.7127 25.7878 15.1835 25.7878C14.6542 25.7878 14.2266 26.2154 14.2266 26.7445V29.7179C14.2266 30.2457 14.6542 30.6754 15.1835 30.6754ZM22.8739 12.3207H25.8472C26.3765 12.3207 26.8047 11.8917 26.8047 11.3638C26.8047 10.8359 26.3764 10.4069 25.8472 10.4069H22.8739C22.3448 10.4069 21.9163 10.8345 21.9163 11.3638C21.9163 11.893 22.3447 12.3207 22.8739 12.3207ZM58.638 50.8867C58.1089 50.8867 57.6811 51.3157 57.6811 51.8436V53.8602H55.6647C55.1354 53.8602 54.7071 54.2892 54.7071 54.817C54.7071 55.3447 55.1354 55.7739 55.6647 55.7739H58.638C59.1659 55.7739 59.5949 55.3462 59.5949 54.817V51.8436C59.5949 51.3157 59.1659 50.8867 58.638 50.8867ZM50.9476 53.8601H47.9742C47.445 53.8601 47.0173 54.2891 47.0173 54.8168C47.0173 55.3446 47.445 55.7737 47.9742 55.7737H50.9476C51.4755 55.7737 51.9045 55.3461 51.9045 54.8168C51.9045 54.2876 51.4755 53.8601 50.9476 53.8601ZM58.638 43.1956C58.1089 43.1956 57.6811 43.6253 57.6811 44.1532V47.1265C57.6811 47.6558 58.1088 48.084 58.638 48.084C59.1673 48.084 59.5949 47.6556 59.5949 47.1265V44.1532C59.5949 43.6253 59.1659 43.1956 58.638 43.1956ZM58.638 20.1251C58.1089 20.1251 57.6811 20.5542 57.6811 21.082V24.0554C57.6811 24.5846 58.1088 25.0123 58.638 25.0123C59.1673 25.0123 59.5949 24.5846 59.5949 24.0554V21.082C59.5949 20.5542 59.1659 20.1251 58.638 20.1251ZM58.638 35.5053C58.1089 35.5053 57.6811 35.935 57.6811 36.4628V39.4361C57.6811 39.9654 58.1088 40.3937 58.638 40.3937C59.1673 40.3937 59.5949 39.9654 59.5949 39.4361V36.4628C59.5949 35.9349 59.1659 35.5053 58.638 35.5053ZM58.638 27.8149C58.1089 27.8149 57.6811 28.2446 57.6811 28.7725V31.7458C57.6811 32.2751 58.1088 32.7027 58.638 32.7027C59.1673 32.7027 59.5949 32.2751 59.5949 31.7458V28.7725C59.5949 28.2446 59.1659 27.8149 58.638 27.8149ZM57.0227 4.95688C53.4264 6.81693 49.1514 6.81693 45.5551 4.95688V18.4311C49.1514 20.2911 53.4264 20.2911 57.0227 18.4311C59.0631 17.3757 61.3219 16.9195 63.5514 17.0615V3.58709C61.3219 3.4449 59.0631 3.90113 57.0227 4.9566V4.95688ZM66.9777 1.51102C66.1459 1.51102 65.4653 2.1916 65.4653 3.0234V32.3438H68.4902V3.02312C68.4902 2.19119 67.8097 1.51074 66.9779 1.51074L66.9777 1.51102ZM39.6666 35.7137V36.3397C39.6666 36.743 39.9935 37.0712 40.3969 37.0712C40.8002 37.0712 41.1283 36.743 41.1283 36.3397V35.7137C41.1283 35.3104 40.8002 34.9822 40.3969 34.9822C39.9935 34.9822 39.6666 35.3104 39.6666 35.7137ZM33.4253 31.1989C33.8286 31.1989 34.1567 30.8708 34.1567 30.4675V29.8415C34.1567 29.4381 33.8286 29.11 33.4253 29.11C33.022 29.11 32.6939 29.4381 32.6939 29.8415V30.4675C32.6939 30.8708 33.022 31.1989 33.4253 31.1989ZM32.4118 22.3264H45.5495V43.8547H28.2717V26.4664L32.4118 22.3263V22.3264ZM40.3967 33.0679C38.939 33.0679 37.7522 34.2547 37.7522 35.7138V36.3398C37.7522 37.7989 38.939 38.9851 40.3967 38.9851C41.8544 38.9851 43.0418 37.7989 43.0418 36.3398V35.7138C43.0418 34.2547 41.8557 33.0679 40.3967 33.0679ZM38.8533 27.815L33.3132 37.4086C33.0496 37.8673 33.2052 38.4524 33.6631 38.7174C33.8133 38.8037 33.9787 38.8459 34.1402 38.8459C34.4711 38.8459 34.7938 38.6732 34.9698 38.3662L40.5099 28.7726C40.7742 28.3146 40.6181 27.7294 40.1601 27.4638C39.7021 27.2002 39.1169 27.3577 38.8533 27.815ZM33.4252 27.1962C31.9661 27.1962 30.7792 28.3824 30.7792 29.8415V30.4675C30.7792 31.9264 31.9661 33.1133 33.4252 33.1133C34.8842 33.1133 36.0704 31.9264 36.0704 30.4675V29.8415C36.0704 28.3824 34.8842 27.1962 33.4252 27.1962ZM24.7236 54.817C24.7236 60.0783 20.4441 64.3584 15.1833 64.3584C9.92252 64.3584 5.64309 60.0783 5.64309 54.817C5.64309 49.5556 9.92184 45.2767 15.1833 45.2767C20.4448 45.2767 24.7236 49.5562 24.7236 54.817ZM17.6884 54.6357C16.924 54.1877 16.1239 53.9978 15.3504 53.8126C15.0882 53.7514 14.8403 53.6914 14.5945 53.6229C13.8479 53.4153 13.4406 53.184 13.2337 52.8531C12.9629 52.4208 13.2422 52.0544 13.3734 51.9168C13.7866 51.4871 14.7599 51.2669 15.6892 51.3942C16.4346 51.4957 17.0282 51.8008 17.2385 52.1902C17.4889 52.6561 18.0701 52.83 18.5347 52.5797C19.0006 52.328 19.1746 51.7487 18.9242 51.2821C18.4372 50.3813 17.4296 49.7466 16.1393 49.5265V48.5795C16.1393 48.0516 15.7116 47.622 15.1824 47.622C14.6531 47.622 14.2255 48.0517 14.2255 48.5795V49.5198C13.3188 49.6714 12.5174 50.0449 11.9941 50.592C11.0998 51.5225 10.9489 52.8088 11.6111 53.8672C12.2206 54.8438 13.25 55.2346 14.0804 55.4672C14.3618 55.545 14.6393 55.6109 14.9074 55.6749C15.573 55.8337 16.2023 55.984 16.7189 56.2877C17.2943 56.6251 17.341 56.9342 17.3068 57.2168C17.2673 57.5437 17.0512 57.8363 16.7282 57.9964C15.5447 58.5855 13.4168 58.2125 12.9344 57.3301C12.6801 56.8668 12.0988 56.6975 11.6356 56.9518C11.1724 57.2049 11.001 57.7868 11.2554 58.2507C11.8109 59.2636 12.9675 59.8804 14.2255 60.1031V61.056C14.2255 61.5852 14.6545 62.0129 15.1824 62.0129C15.7102 62.0129 16.1393 61.5852 16.1393 61.056V60.14C16.6599 60.0662 17.1534 59.9225 17.5818 59.7096C18.4813 59.2621 19.0895 58.416 19.2075 57.448C19.3479 56.2927 18.8081 55.2944 17.6886 54.6354L17.6884 54.6357ZM28.8553 54.8175C28.8553 62.3479 22.7137 68.4895 15.1835 68.4895C7.65326 68.4895 1.51172 62.3476 1.51172 54.8172C1.51172 47.2869 7.6534 41.1452 15.1836 41.1452C22.7138 41.1452 28.8555 47.2869 28.8555 54.8172L28.8553 54.8175ZM26.6379 54.8168C26.6379 48.5004 21.4997 43.3623 15.1833 43.3623C8.86691 43.3623 3.72875 48.5004 3.72875 54.8168C3.72875 61.1332 8.86691 66.2728 15.1833 66.2728C21.4997 66.2728 26.6379 61.1334 26.6379 54.8168Z" fill="#ffffff"/>
</svg>

<svg xmlns="http://www.w3.org/2000/svg" width="70" height="70" fill="none"><path fill="#fff" fill-rule="evenodd" d="M36.524 54.817c0 .529-.43.957-.957.957h-2.974a.957.957 0 1 1 0-1.914h2.974c.528 0 .957.429.957.957m1.73-42.497h2.974a.957.957 0 1 0 0-1.913h-2.973a.956.956 0 1 0 0 1.913m-23.07 26.046c.529 0 .956-.43.956-.958v-2.973a.956.956 0 1 0-1.913 0v2.973c0 .528.427.958.957.958m0-23.072c.529 0 .956-.43.956-.956V12.32h2.017a.957.957 0 1 0 0-1.914h-2.973a.956.956 0 0 0-.957.957v2.974c0 .527.427.956.957.956M43.257 53.86h-2.973a.957.957 0 1 0 0 1.914h2.973a.957.957 0 1 0 0-1.914M30.564 12.32h2.974a.957.957 0 1 0 0-1.913h-2.974a.956.956 0 1 0 0 1.913m-15.38 10.665c.529 0 .956-.43.956-.958v-2.973a.956.956 0 1 0-1.913 0v2.973c0 .528.427.958.957.958m0 7.69c.529 0 .956-.43.956-.957v-2.974a.956.956 0 1 0-1.913 0v2.974c0 .528.427.957.957.957m7.69-18.354h2.973a.957.957 0 1 0 0-1.914h-2.973a.957.957 0 1 0 0 1.914m35.764 38.566a.957.957 0 0 0-.957.957v2.016h-2.016a.957.957 0 1 0 0 1.914h2.973a.957.957 0 0 0 .957-.957v-2.973a.96.96 0 0 0-.957-.957m-7.69 2.973h-2.974a.957.957 0 1 0 0 1.914h2.974a.957.957 0 1 0 0-1.914m7.69-10.664c-.53 0-.957.43-.957.957v2.974a.956.956 0 1 0 1.914 0v-2.974a.96.96 0 0 0-.957-.957m0-23.07c-.53 0-.957.428-.957.956v2.973a.956.956 0 1 0 1.914 0v-2.973a.96.96 0 0 0-.957-.957m0 15.38c-.53 0-.957.429-.957.957v2.973a.957.957 0 1 0 1.914 0v-2.973a.96.96 0 0 0-.957-.958m0-7.691c-.53 0-.957.43-.957.957v2.974a.956.956 0 1 0 1.914 0v-2.973a.96.96 0 0 0-.957-.958M57.023 4.957a12.48 12.48 0 0 1-11.468 0V18.43a12.48 12.48 0 0 0 11.468 0 12.5 12.5 0 0 1 6.528-1.37V3.587a12.5 12.5 0 0 0-6.528 1.37m9.955-3.446c-.832 0-1.513.68-1.513 1.512v29.32h3.025V3.024c0-.832-.68-1.512-1.512-1.512M39.667 35.714v.626a.731.731 0 1 0 1.461 0v-.626a.731.731 0 1 0-1.462 0m-6.242-4.515a.73.73 0 0 0 .732-.732v-.625a.732.732 0 0 0-1.463 0v.626c0 .403.328.73.731.73m-1.013-8.873H45.55v21.529H28.272V26.466zm7.985 10.742a2.65 2.65 0 0 0-2.645 2.646v.626a2.65 2.65 0 0 0 2.645 2.645 2.65 2.65 0 0 0 2.645-2.645v-.626a2.65 2.65 0 0 0-2.645-2.646m-1.544-5.253-5.54 9.594a.96.96 0 0 0 .827 1.437c.331 0 .654-.173.83-.48l5.54-9.593a.957.957 0 1 0-1.657-.958m-5.428-.619a2.65 2.65 0 0 0-2.646 2.645v.627a2.65 2.65 0 0 0 2.646 2.645 2.65 2.65 0 0 0 2.645-2.645v-.626a2.65 2.65 0 0 0-2.645-2.646m-8.701 27.621c0 5.261-4.28 9.541-9.54 9.541-5.261 0-9.54-4.28-9.54-9.541s4.278-9.54 9.54-9.54c5.26 0 9.54 4.28 9.54 9.54m-7.036-.181c-.764-.448-1.564-.638-2.338-.823-.262-.062-.51-.122-.755-.19-.747-.208-1.154-.439-1.361-.77-.271-.432.008-.799.14-.936.413-.43 1.386-.65 2.315-.523.746.102 1.34.407 1.55.796a.957.957 0 1 0 1.685-.908c-.487-.9-1.494-1.535-2.785-1.755v-.947a.957.957 0 1 0-1.913 0v.94c-.907.151-1.709.525-2.232 1.072-.894.93-1.045 2.217-.383 3.275.61.977 1.639 1.368 2.47 1.6.28.078.558.144.826.208.666.159 1.295.309 1.812.613.575.337.622.646.588.929-.04.327-.256.62-.579.78-1.183.589-3.311.215-3.794-.667a.956.956 0 0 0-1.679.92c.556 1.014 1.712 1.63 2.97 1.853v.953a.957.957 0 1 0 1.914 0v-.916a4.8 4.8 0 0 0 1.443-.43 2.93 2.93 0 0 0 1.625-2.262c.14-1.155-.399-2.154-1.518-2.813m11.167.181c0 7.53-6.141 13.673-13.671 13.673S1.511 62.348 1.511 54.817s6.141-13.672 13.672-13.672c7.53 0 13.672 6.142 13.672 13.672m-2.217 0c0-6.317-5.138-11.455-11.455-11.455-6.316 0-11.454 5.138-11.454 11.455 0 6.316 5.138 11.456 11.454 11.456s11.455-5.14 11.455-11.456" clip-rule="evenodd"/></svg>
